X:15
T: SISCH NOCH NIT LANG
N: E1011
O: Europa, Mitteleuropa, Deutschland; Frankreich, Elsass
R: Tanz - Lied
M: 2/4
L: 1/16
K: Bb
F2 | F2B2B2B2 | A2c2B4 | A2c2B2
d2 | c2B2A2G2 | F2A2c2
c2 | c2c2f2f2 | F4z2
cd | e2e2e2c2 | d2ddd2
B2 | c2c2c2A2 | B2d2f2
cd | e2e2e2c2 | d2ddd2
B2 | c2c2A2A2 | B4z2

